static/assets/img/icons/theme/shopping/price-1.svg

<svg height="24" viewBox="0 0 24 24" width="24" xmlns="http://www.w3.org/2000/svg"><g fill="none" fill-rule="evenodd"><path d="m0 0h24v24h-24z" opacity="0"/><path d="m3.52270623 14.028695c-.69694164-.7011009-.69694164-1.833405 0-2.5345059l8.09005667-7.95368339c.33618-.33051308.7887501-.51572431 1.2601904-.51572431h6.4544639c.9927439 0 1.7975218.80477795 1.7975218 1.79752186v6.43600264c0 .48236-.1938657.9444803-.5380119 1.2824663l-8.0766116 7.9320386c-.337158.3375334-.7946678.5271892-1.2717467.5271892s-.9345887-.1896558-1.2717467-.5271892zm13.40801517-5.01217407c.9927439 0 1.7975218-.80477795 1.7975218-1.79752186s-.8047779-1.79752186-1.7975218-1.79752186-1.7975219.80477795-1.7975219 1.79752186.804778 1.79752186 1.7975219 1.79752186z" fill="#000" fill-rule="nonzero" opacity=".3"/></g></svg>

<svg width="24px" height="24px" viewBox="0 0 24 24" version="1.1" xmlns="http://www.w3.org/2000/svg" xmlns:xlink="http://www.w3.org/1999/xlink">
    <title>Icon For Price #1</title>
    <g stroke="none" stroke-width="1" fill="none" fill-rule="evenodd">
        <polygon opacity="0" points="0 0 24 0 24 24 0 24"></polygon>
        <path d="M3.52270623,14.028695 C2.82576459,13.3275941 2.82576459,12.19529 3.52270623,11.4941891 L11.6127629,3.54050571 C11.9489429,3.20999263 12.401513,3.0247814 12.8729533,3.0247814 L19.3274172,3.0247814 C20.3201611,3.0247814 21.124939,3.82955935 21.124939,4.82230326 L21.124939,11.2583059 C21.124939,11.7406659 20.9310733,12.2027862 20.5869271,12.5407722 L12.5103155,20.4728108 C12.1731575,20.8103442 11.7156477,21 11.2385688,21 C10.7614899,21 10.3039801,20.8103442 9.9668221,20.4728108 L3.52270623,14.028695 Z M16.9307214,9.01652093 C17.9234653,9.01652093 18.7282432,8.21174298 18.7282432,7.21899907 C18.7282432,6.22625516 17.9234653,5.42147721 16.9307214,5.42147721 C15.9379775,5.42147721 15.1331995,6.22625516 15.1331995,7.21899907 C15.1331995,8.21174298 15.9379775,9.01652093 16.9307214,9.01652093 Z" fill="#000000" fill-rule="nonzero" opacity="0.3"></path>
    </g>
</svg>
